X: 10422
T: Donald, Hugh, And His Dog
R: slip jig
M: 9/8
K: Dmajor
|:A2 c Aec e~A2|c<ec e ~A2 c2 e|A2 c Aec e~A2|c<dc Bce f2 a:|
|:e3 c3 e ~A2|B3 c3 A<ec|e3 c3 e ~A2|c<dc Bce f2 a:|
|:A2 c B2 c AcB|A2 c B2 c A<ec|A2 c B2 c A<ec|c<dc Bce f2 a:|
|:e3 cee fec|e3 cee f2 a|e3 cee [1fec][2fga]|c<dc Bce f2 a:|

